img/iconsfont/arrow-link.svg

<svg width="20" height="14" viewBox="0 0 20 14" fill="none" xmlns="http://www.w3.org/2000/svg">
<path fill-rule="evenodd" clip-rule="evenodd" d="M12.4697 0.46967C12.1768 0.762563 12.1768 1.23744 12.4697 1.53033L17.1893 6.25H1C0.585787 6.25 0.25 6.58579 0.25 7C0.25 7.41421 0.585787 7.75 1 7.75H17.1893L12.4697 12.4697C12.1768 12.7626 12.1768 13.2374 12.4697 13.5303C12.7626 13.8232 13.2374 13.8232 13.5303 13.5303L19.5303 7.53033C19.8232 7.23744 19.8232 6.76256 19.5303 6.46967L13.5303 0.46967C13.2374 0.176777 12.7626 0.176777 12.4697 0.46967Z" fill="white"/>
</svg>

<svg width="20" height="14" fill="none" xmlns="http://www.w3.org/2000/svg"><path fill-rule="evenodd" clip-rule="evenodd" d="M12.47.47a.75.75 0 000 1.06l4.72 4.72H1a.75.75 0 000 1.5h16.19l-4.72 4.72a.75.75 0 101.06 1.06l6-6a.75.75 0 000-1.06l-6-6a.75.75 0 00-1.06 0z" fill="#fff"/></svg>
